X:162
M:C|
L:1/8
K:D
f|ddfd adfd|ddfd eBBe|ddfd adfd|BdAd FDDf|ddfd adfd|
ddfd eBBg|fdec dBAB|dfeg fdd||

